www/assets/icons/network_locked.svg

<svg xmlns="http://www.w3.org/2000/svg" width="24" height="24" viewBox="0 0 24 24" fill='currentColor'><path d="M19.5 10.5c.17 0 .33.03.5.05V1.5l-19 19h13v-3c0-.89.39-1.68 1-2.23V15c0-2.48 2.02-4.5 4.5-4.5m2.5 6V15a2.5 2.5 0 0 0-5 0v1.5c-.55 0-1 .45-1 1v4c0 .55.45 1 1 1h5c.55 0 1-.45 1-1v-4c0-.55-.45-1-1-1m-1 0h-3V15c0-.83.67-1.5 1.5-1.5s1.5.67 1.5 1.5z"/></svg>

<svg width="24" height="24" viewBox="0 0 24 24" xmlns="http://www.w3.org/2000/svg" fill='currentColor'><path d="M19.5 10.5C19.67 10.5 19.83 10.53 20 10.55V1.5L1 20.5H14V17.5C14 16.61 14.39 15.82 15 15.27V15C15 12.52 17.02 10.5 19.5 10.5ZM22 16.5V15C22 13.62 20.88 12.5 19.5 12.5C18.12 12.5 17 13.62 17 15V16.5C16.45 16.5 16 16.95 16 17.5V21.5C16 22.05 16.45 22.5 17 22.5H22C22.55 22.5 23 22.05 23 21.5V17.5C23 16.95 22.55 16.5 22 16.5ZM21 16.5H18V15C18 14.17 18.67 13.5 19.5 13.5C20.33 13.5 21 14.17 21 15V16.5Z"/></svg>
